X:1
T:Psalmus 2us 6us supra centesimum à 4 voix
T:[Nisi Dominus]
T:Continuo
T:© Copyright 2006 Paul Cienniwa
T:© Copyright 2006 Paul Cienniwa
T:© Copyright 2006 Paul Cienniwa
C:Marc-Antoine Charpentier (1643-1704)
C:ed. Paul Cienniwa
Z:© Copyright 2006 Paul Cienniwa
L:1/8
M:4/4
K:C
V:1 bass nm="Continuo" snm="Org."
V:1
"^" z8 ||[M:3/4][K:bass] C,6- | C,2 C2 C2 |"^53""^64" A,4"^6" G,2 |"^7" F,4"^6""^6" E,2 | %5
"^7""^6" D,6 | C,6 | z2 G,2 G,2 |"^53""^64" E,4"^6" D,2 |"^7" C,4"^6""^6" B,,2 |"^7""^#6" A,,6 | %11
 G,,4 G,2 | D,3 F,"^65" E,D, | C,4 C,2 | G,A, B,A, G,F, | E,6 | F,G, A,G, F,E, | D,6 | %18
 A,_B, A,G, F,E, | D,4 D,2 | G,3 F, G,2 |"^6" E,3 D, C,2 |"^75""^65" D,6 |"^54""^3" D,,6 | %24
 G,,3 A,, B,,2 | C,2"^54""^3" D,4 | G,A, G,F, E,D, | C,3 C, F,E, |"^5""^6" D,4 C,2 | %29
"^5" F,4"^6" F,2 | G,4 F,2 | E,6 | F,4 D,2 | G,4 E,2 | A,4 F,2 | _B,4"^6b" G,2 | %36
"^53""^64" A,4- A,G, |"^5""^65" F,6 |"^64" G,2"^54""^3" G,,4 | C,2 C2 C2 |"^6" A,3 G, F,2 | C4 C2 | %42
 C,3 D, E,F, |"^5""^6" G,4 G,2 |"^7""^#6" A,6 | G,A, G,F, E,D, | C,2 B,,2 A,,2 | %47
 G,,2"^5" G,2"^6" G,2 |"^5""^6" D,6 |"^53""^64" A,6 |"^5" E,4"^#" A,2 | D,6 |"^5""^b6" A,6 | %53
"^7""^6" G,6 |"^7""^6" F,6 |"^#" E,4"^b6#" E,2 | F,4"^75" D,2 |"^#" E,6 |"^#" A,4 A,2 | %59
"^#" D,4 D,2 | G,4 G,2 | C,6 | C4 C2 |"^6" A,4 C2 |"^5""^6" F,6 |"^5" G,4"^6" G,2 | %66
"^5" D,4"^6" D,2 |"^5" A,4"^6" A,2 |"^6""^b5" E,4 E,2 | F,6 | D,6 |"^97""^86" E,4"^75" F,2- | %72
 F,2"^4""^3" G,4 | A,2"^6b5" E,2 E,2 |"^5" F,4"^73" F,2 |"^54" G,2"^3" G,,4 | !fermata!C,6 | %77
[M:2/2] G,4 ^F,4 | G,4 E,4 | F,4 C,4 | G,4 G,,4 | C,4 C2 C2 | B,8 | C4 A,4 | _B,4 F,4 | C4 C,4 | %86
 D,2 A,,2 _B,,4 | F,8- | F,2"^#4" F,2"^6" E,2"^6" D,2 | C,2 D,2 E,2 F,2 | G,6 F,E, | %91
 D,2 E,2 F,2 G,2 |[M:3/2]"^#" A,8 A,4 | D,4 ^C,4 D,4 |"^5#3""^9#74" A,,12 |"^85#3""^9#74" A,,12 | %96
"^85#3" A,,12 | ^C,12 | D,12 |"^7""^6" G,12 |"^7b5""^b5" ^G,12 |"^5" A,12 |"^6#43" _B,12 | %103
"^65" G,8 ^G,4 |"^64" A,4"^54""^3" A,,8 |[M:2/2] D,6 E,2 | F,6 E,D, | C,2 D,2 E,2 F,2 | G,6 F,E, | %109
 D,2 E,2 F,2 G,2 | A,6 G,F, |"^6" E,2 D,2 E,2 F,2 |[M:3/2] G,8 G,4 | C,4 B,,4 C,4 | %114
"^853""^974" G,,12 |"^853""^974" G,,12 |"^853" G,,12 | B,,12 | C,12 |"^7""^6" F,12 | ^F,12 | %121
"^5" G,12 |"^6#43" _A,12 |"^65#" F,8 ^F,4 |"^b64" G,4"^54""^3" G,,8 |"^b" C,12 |"^#" C,12 | C,12 | %128
 C,12 | B,,12 |"^7""^6" A,,12 |"^73""^64" G,,12- |"^53" G,,12 |"^""^" G,4 D,2 D,2 | %134
 F,2 F,2 C,2 C,2 | G,,2 G,2 _B,2 B,2 | F,2 F,2 A,3 E, | F,2"^64" E,2"^6" D,2 C,2 | G,4 C2 E,2 | %139
 F,2 C,2"^4" G,2"^3" G,,2 | C,4 C2 C2 | G,2 G,2 _B,2 B,2 | F,2 F,2 A,2 G,F, | E,4"^6" F,4 | %144
 G,3 A, B,2 G,2 | C2"^6" B,2"^#6" A,2 G,2 |"^7""^#6" A,8 | G,4 D,2 D,2 | F,2 F,2 C,2 C,2 | %149
"^b" G,,2 G,2 _B,2 B,2 | F,2 F,2 A,3 E, | F,2"^64" E,2"^6" D,2 C,2 | G,4 C2 E,2 | %153
 F,2 C,2 G,2 G,,2 | C,4 C2 E,2 | F,2 C,2"^4" G,2"^3" G,,2 | !fermata!C,8 || %157
[M:4/4] C,2 C,C, B,,3 G,, | C,4"^6" A,,2 z/ A,/G,/F,/ | E,4 F,4- | %160
"^#4" F,2"^6" E,2-"^42" E,2"^6" D,2 | C,2 CC A,2 E,2 | F,3"^64" E,"^6" D,3 C, | %163
"^6" B,,4"^5""^6" C,4 | B,,3 C, B,,C,"^4""^3" D,2 | E,^F,G,B,, C,E,"^4"D,"^3"D,, | %166
 G,,2 B,,2 C,2 ^C,2 | D,2 _B,G, A,G,"^#4"F,"^#6"E, | D,/C,/_B,,/A,,/ G,,B,,"^64""^54""^3" A,,4 | %169
 D,2 DD B,A,/G,/ ^F,F, | G,G, E,D,/C,/ F,2 E,2 | F,2 D,2 G,2"^5" E,2 | %172
 A,>G, F,F,"^4" G,2"^3" G,,2 | A,,A,E,E, F,F, D,D,/D,/ | G,2 E,2 F,2 G,G,, | %175
 C,2 F,2 G,A,"^64"G,"^6"F, | E,E,F,F, G,2 G,G, |"^5""^6" D,2"^5" E,2"^5" A,3"^6" A, | %178
"^7""^6" G,4"^7""^6" F,4 |"^5#""^64""^5#3" E,8 | F,C, D,>A,, E,>D, C,C, | %181
"^#" D,2"^5" B,,2"^#" E,2"^#5" C,2 | F,2"^75" D,2"^64""^54""^3" E,4 | %183
 A,,A,G,A,"^5""^6" F,2"^7""^#6" E,2 | D,4 G,4 | C,2 G,E, F,2 D,2 |"^#" E,2"^#6" ^F,2"^6b5" ^G,4 | %187
 A,3 D,"^54""^3" E,4 |"^""^""^b" A,,2 A,2 G,2 | F,6 | G,6 | A,4 D,2 |"^#" A,,2"^#" A,2 G,2 | %193
 F,6 | G,4 F,2 |"^7""^#6" E,6 |"^4" D,6 | G,6- |"^42" G,4 ^F,2 | G,6 | C,2 D,2 E,2 | %201
"^5""^6" F,4 E,2 | D,2 E,2 F,2 | G,4 G,2 |"^5" E,2 E,2 E,2 | A,6 | F,2 F,2 F,2 |"^7""^6" _B,6 | %208
"^7" A,4 G,2 |"^54" A,4"^3" A,,2 |"^#" D,2 D2 B,2 | C4 B,2 |"^7""^#6" A,6 | G,4 G,2 | G,2 E,2 E,2 | %215
"^65" F,2"^54""^3" G,4 | C,3 B,, C,2 | C,2"^4""^3" D,4 | G,,2 G,2 E,2 | F,3 E, D,2 | A,2 A,2 A,2 | %221
"^6" E,4 F,2 |"^7""^6" D,6 | C,B,,C,D, E,F, | G,4 G,2 | C,2 C2 A,2 | _B,4 A,2 |"^7""^6" G,6 | %228
 F,2 F,2 G,2 |"^5" A,4"^64" A,2 |"^6" E,2 E,2 F,2 |"^7" G,6 | C,B,,C,D, E,F, |"^54" G,2"^3" G,,4 | %234
 C,6 ||[M:2/2] F,8- | F,8- |"^#4" F,8 | C,2 x30 |] %239

